src/gesture/button-start-symbolic.svg

<svg width="64" height="64" version="1.1" xmlns="http://www.w3.org/2000/svg">
  <title>Gnome Symbolic Icon Theme</title>
  <g transform="translate(-283,-601)">
    <path transform="translate(283,601)" d="m32 16a16 16 0 0 0-16 16 16 16 0 0 0 16 16 16 16 0 0 0 16-16 16 16 0 0 0-16-16zm0 2.875a13 13 0 0 1 13 13 13 13 0 0 1-13 13 13 13 0 0 1-13-13 13 13 0 0 1 13-13z" fill="#bebebe"/>
    <g transform="matrix(1 0 0 1 149.63 -134.9)">
      <title>go-home</title>
      <g transform="matrix(.026036 0 0 .026036 345.97 902.08)" fill="#bebebe"></g>
    </g>
    <path d="m311 628v10h0.90625 0.0937c0.17491 1e-3 0.34778-0.0388 0.5-0.125l7-4c0.3107-0.17189 0.46875-0.52345 0.46875-0.875s-0.15805-0.70311-0.46875-0.875l-7-4c-0.15222-0.0862-0.32509-0.12631-0.5-0.125h-0.0937z" color="#000000" fill="#bebebe" style="text-decoration-line:none;text-indent:0;text-transform:none"/>
  </g>
</svg>

<?xml version="1.0" encoding="UTF-8" standalone="no"?>
<!-- Created with Inkscape (http://www.inkscape.org/) -->

<svg
   xmlns:dc="http://purl.org/dc/elements/1.1/"
   xmlns:cc="http://creativecommons.org/ns#"
   xmlns:rdf="http://www.w3.org/1999/02/22-rdf-syntax-ns#"
   xmlns:svg="http://www.w3.org/2000/svg"
   xmlns="http://www.w3.org/2000/svg"
   xmlns:sodipodi="http://sodipodi.sourceforge.net/DTD/sodipodi-0.dtd"
   xmlns:inkscape="http://www.inkscape.org/namespaces/inkscape"
   sodipodi:docname="button-start-symbolic.svg"
   height="64"
   id="svg7384"
   inkscape:version="0.92.3 (2405546, 2018-03-11)"
   version="1.1"
   width="64">
  <metadata
     id="metadata90">
    <rdf:RDF>
      <cc:Work
         rdf:about="">
        <dc:format>image/svg+xml</dc:format>
        <dc:type
           rdf:resource="http://purl.org/dc/dcmitype/StillImage" />
        <dc:title>Gnome Symbolic Icon Theme</dc:title>
      </cc:Work>
    </rdf:RDF>
  </metadata>
  <sodipodi:namedview
     inkscape:bbox-paths="false"
     bordercolor="#666666"
     borderopacity="1"
     inkscape:current-layer="layer11"
     inkscape:cx="17.039752"
     inkscape:cy="18.215094"
     gridtolerance="10"
     inkscape:guide-bbox="true"
     guidetolerance="10"
     id="namedview88"
     inkscape:object-nodes="false"
     inkscape:object-paths="false"
     objecttolerance="10"
     pagecolor="#555753"
     inkscape:pageopacity="1"
     inkscape:pageshadow="2"
     showborder="false"
     showgrid="false"
     showguides="true"
     inkscape:snap-bbox="true"
     inkscape:snap-bbox-midpoints="false"
     inkscape:snap-global="true"
     inkscape:snap-grids="true"
     inkscape:snap-nodes="false"
     inkscape:snap-others="false"
     inkscape:snap-to-guides="true"
     inkscape:window-height="1016"
     inkscape:window-maximized="1"
     inkscape:window-width="1920"
     inkscape:window-x="0"
     inkscape:window-y="27"
     inkscape:zoom="10.24">
    <inkscape:grid
       empspacing="2"
       enabled="true"
       id="grid4866"
       snapvisiblegridlinesonly="true"
       spacingx="1"
       spacingy="1"
       type="xygrid"
       visible="true"
       originx="0"
       originy="0" />
  </sodipodi:namedview>
  <title
     id="title9167">Gnome Symbolic Icon Theme</title>
  <defs
     id="defs7386" />
  <g
     inkscape:groupmode="layer"
     id="layer9"
     inkscape:label="status"
     style="display:inline"
     transform="translate(-283,-601)" />
  <g
     inkscape:groupmode="layer"
     id="layer10"
     inkscape:label="devices"
     transform="translate(-283,-601)" />
  <g
     inkscape:groupmode="layer"
     id="layer11"
     inkscape:label="apps"
     transform="translate(-283,-601)">
    <path
       style="opacity:1;fill:#bebebe;fill-opacity:1;stroke:none;stroke-width:0;stroke-miterlimit:4;stroke-dasharray:none;stroke-dashoffset:0;stroke-opacity:1"
       d="M 32 16 A 16 16 0 0 0 16 32 A 16 16 0 0 0 32 48 A 16 16 0 0 0 48 32 A 16 16 0 0 0 32 16 z M 32 18.875 A 13 13 0 0 1 45 31.875 A 13 13 0 0 1 32 44.875 A 13 13 0 0 1 19 31.875 A 13 13 0 0 1 32 18.875 z "
       transform="translate(283,601)"
       id="path828" />
    <g
       id="g5388"
       transform="matrix(1,0,0,0.99999871,149.62653,-134.9021)">
      <title
         id="title5390">go-home</title>
      <g
         id="g5392"
         style="fill:#bebebe;fill-opacity:1"
         transform="matrix(0.02603569,0,0,0.02603569,345.96663,902.07624)">
        <g
           id="g5394"
           style="fill:#bebebe;fill-opacity:1" />
        <g
           id="g5396"
           style="fill:#bebebe;fill-opacity:1" />
      </g>
      <g
         id="g5398"
         inkscape:label="go-down"
         transform="matrix(0,1,1,0,-360.61998,639.9031)" />
    </g>
    <path
       inkscape:connector-curvature="0"
       d="m 311.00005,628 v 10 h 0.90625 0.0937 c 0.17491,10e-4 0.34778,-0.0388 0.5,-0.125 l 7,-4 c 0.3107,-0.17189 0.46875,-0.52345 0.46875,-0.875 0,-0.35155 -0.15805,-0.70311 -0.46875,-0.875 l -7,-4 c -0.15222,-0.0862 -0.32509,-0.12631 -0.5,-0.125 h -0.0937 z"
       id="path3807-1-1-9-38-4"
       sodipodi:nodetypes="ccccccsccccc"
       style="color:#000000;font-style:normal;font-variant:normal;font-weight:normal;font-stretch:normal;font-size:medium;line-height:normal;font-family:'Bitstream Vera Sans';-inkscape-font-specification:'Bitstream Vera Sans';text-indent:0;text-align:start;text-decoration:none;text-decoration-line:none;letter-spacing:normal;word-spacing:normal;text-transform:none;writing-mode:lr-tb;direction:ltr;text-anchor:start;display:inline;overflow:visible;visibility:visible;fill:#bebebe;fill-opacity:1;fill-rule:nonzero;stroke:none;stroke-width:2;marker:none;enable-background:accumulate" />
  </g>
  <g
     inkscape:groupmode="layer"
     id="layer13"
     inkscape:label="places"
     transform="translate(-283,-601)" />
  <g
     inkscape:groupmode="layer"
     id="layer14"
     inkscape:label="mimetypes"
     transform="translate(-283,-601)" />
  <g
     inkscape:groupmode="layer"
     id="layer15"
     inkscape:label="emblems"
     style="display:inline"
     transform="translate(-283,-601)" />
  <g
     inkscape:groupmode="layer"
     id="g71291"
     inkscape:label="emotes"
     style="display:inline"
     transform="translate(-283,-601)" />
  <g
     inkscape:groupmode="layer"
     id="g4953"
     inkscape:label="categories"
     style="display:inline"
     transform="translate(-283,-601)" />
  <g
     inkscape:groupmode="layer"
     id="layer12"
     inkscape:label="actions"
     style="display:inline"
     transform="translate(-283,-601)" />
</svg>
